X:1610
T:Magdalenas vals
R:Vals
C: Olle Lindvall
Z:ABC-transkribering av Olle Lindvall
M:3/4
L:1/8
K:Dm
|:FG AG FE |DC DE FG |A3 G A_B |A4 G2|
FG AG FE |DC DE FE |D3 C DE |FE DC A,2|
FG AG FE |DC DE FG |A3 G A_B |A4 G |
FG AG FE |DC DE FG |D3 C DE |D3 z2 E |
F2 DC A,2|_B,A,_B,C DF |E2 D4 |z6 :|
|:A>d dA dA |dA f4 |A>c cA cA |cA e4 |
fe dc AG |FE FG A2 |fe dc AF |
GA A2 GF |E2 D4    |z6 :|
(:musicend:)
(:music:)
